resources/icons/20px/subscript.svg

<svg width="20" height="20" viewBox="0 0 20 20" fill="none" xmlns="http://www.w3.org/2000/svg">
<path fill-rule="evenodd" clip-rule="evenodd" d="M0.224095 6.6309C0.0839925 6.45881 0 6.23921 0 6C0 5.44772 0.447715 5 1 5C1.31925 5 1.60357 5.14961 1.78665 5.38253L5 9.39922L8.21338 5.38249C8.39647 5.14959 8.68076 5 9 5C9.55229 5 10 5.44772 10 6C10 6.23923 9.916 6.45883 9.77588 6.63093L6.28062 11L9.77585 15.369C9.91599 15.5411 10 15.7608 10 16C10 16.5523 9.55229 17 9 17C8.68073 17 8.3964 16.8504 8.21332 16.6174L5 12.6008L1.78667 16.6174C1.60359 16.8504 1.31927 17 1 17C0.447715 17 0 16.5523 0 16C0 15.7608 0.0840117 15.5411 0.224143 15.369L3.71938 11L0.224095 6.6309ZM16.024 17.96C16.1838 17.77 16.3636 17.58 16.5834 17.41C16.7932 17.23 17.033 17.05 17.2927 16.88L17.2928 16.88C17.5425 16.7 17.7922 16.52 18.042 16.32C18.2917 16.12 18.5315 15.91 18.7712 15.69C19.001 15.47 19.2108 15.22 19.4006 14.95C19.5804 14.68 19.7303 14.39 19.8402 14.07C19.9501 13.75 20 13.4 20 13C20 12.68 19.9501 12.35 19.8601 12C19.7702 11.65 19.6104 11.32 19.3906 11.03C19.1708 10.73 18.8811 10.48 18.5215 10.29C18.1618 10.09 17.7123 10 17.1728 10C16.6833 10 16.2438 10.1 15.8741 10.29C15.5045 10.47 15.1848 10.73 14.9251 11.07C14.6653 11.4 14.4755 11.8 14.3457 12.27C14.2158 12.73 14.1459 13.23 14.1459 13.77H15.5744C15.5844 13.42 15.6144 13.1 15.6643 12.8C15.7143 12.5 15.8042 12.24 15.9141 12.02C16.024 11.8 16.1738 11.63 16.3636 11.5C16.5535 11.37 16.7932 11.31 17.0729 11.31C17.3826 11.31 17.6324 11.37 17.8222 11.49C18.012 11.61 18.1618 11.75 18.2717 11.92C18.3816 12.09 18.4516 12.28 18.4915 12.48C18.5315 12.68 18.5515 12.87 18.5515 13.05C18.5415 13.43 18.4516 13.77 18.2917 14.07C18.1419 14.37 17.9221 14.64 17.6623 14.9C17.4026 15.15 17.1229 15.39 16.8132 15.61C16.5035 15.83 16.2038 16.06 15.9241 16.29C15.3247 16.74 14.8651 17.27 14.5155 17.87C14.1658 18.48 13.996 19.19 13.986 20H19.97V18.57H15.6943C15.7543 18.36 15.8641 18.15 16.024 17.96Z" fill="black"/>
</svg>

<svg xmlns="http://www.w3.org/2000/svg" viewBox="0 0 20 20">
  <path d="M.224 6.63a1 1 0 1 1 1.563-1.248L5 9.4l3.213-4.017A1 1 0 1 1 9.776 6.63L6.28 11l3.495 4.369a1 1 0 1 1-1.563 1.248L5 12.601l-3.213 4.016A1 1 0 1 1 .224 15.37L3.72 11zm15.8 11.33c.16-.19.34-.38.56-.55.21-.18.449-.36.709-.53.25-.18.5-.36.749-.56.25-.2.49-.41.73-.63.229-.22.439-.47.629-.74.18-.27.33-.56.44-.88S20 13.4 20 13c0-.32-.05-.65-.14-1s-.25-.68-.47-.97c-.22-.3-.509-.55-.869-.74-.36-.2-.809-.29-1.348-.29-.49 0-.93.1-1.299.29-.37.18-.69.44-.949.78-.26.33-.45.73-.58 1.2-.13.46-.2.96-.2 1.5h1.43c.01-.35.04-.67.09-.97s.14-.56.25-.78.259-.39.449-.52.43-.19.709-.19q.465 0 .75.18c.189.12.339.26.449.43s.18.36.22.56q.06.3.06.57c-.01.38-.1.72-.26 1.02-.15.3-.37.57-.63.83-.26.25-.54.49-.849.71-.31.22-.61.45-.889.68-.6.45-1.059.98-1.408 1.58-.35.61-.52 1.32-.53 2.13h5.984v-1.43h-4.276c.06-.21.17-.42.33-.61"/>
</svg>
